32x32/apps/emily-is-away.svg

<svg height="32" width="32" xmlns="http://www.w3.org/2000/svg"><path d="m2 7v20.611c0 .77.624 1.389 1.4 1.389h25.2c.776 0 1.4-.619 1.4-1.389v-20.611z" opacity=".2"/><rect height="2.8" opacity=".2" rx="1.066" ry="1.161" width="22.4" x="4.8" y="20.55"/><path d="m2 6v20.611c0 .77.624 1.389 1.4 1.389h25.2c.776 0 1.4-.619 1.4-1.389v-20.611z" fill="#c7c7c7"/><path d="m3.4 3c-.776 0-1.4.62-1.4 1.389v1.611h28v-1.611a1.39 1.39 0 0 0 -1.4-1.389z" fill="#00caff"/><path d="m3.4 3c-.776 0-1.4.62-1.4 1.389v1c0-.77.624-1.389 1.4-1.389h25.2c.776 0 1.4.62 1.4 1.389v-1c0-.77-.624-1.389-1.4-1.389z" fill="#f4f4f7" opacity=".1"/><path d="m9 12h10v14h-10z" opacity=".1"/><path d="m9 11h10v14h-10z" fill="#f4b801"/><path d="m13 9h10v7c0 5 3 7 3 7h-10s-3-2-3-7z" opacity=".2"/><path d="m13 8h10v7c0 5 3 7 3 7h-10s-3-2-3-7z" fill="#fecd38"/></svg>

<svg height="32" width="32" xmlns="http://www.w3.org/2000/svg">
    <path d="M2 7v20.611C2 28.381 2.624 29 3.4 29h25.2c.776 0 1.4-.619 1.4-1.389V7z" opacity=".2"/>
    <rect height="2.8" opacity=".2" rx="1.066" ry="1.161" width="22.4" x="4.8" y="20.55"/>
    <path d="M2 6v20.611C2 27.381 2.624 28 3.4 28h25.2c.776 0 1.4-.619 1.4-1.389V6z" fill="#c7c7c7"/>
    <path d="M3.4 3C2.624 3 2 3.62 2 4.389V6h28V4.389A1.39 1.39 0 0 0 28.6 3z" fill="#00caff"/>
    <path d="M3.4 3C2.624 3 2 3.62 2 4.389v1C2 4.619 2.624 4 3.4 4h25.2c.776 0 1.4.62 1.4 1.389v-1A1.39 1.39 0 0 0 28.6 3z" fill="#f4f4f7" opacity=".1"/>
    <path d="M9 12h10v14H9z" opacity=".1"/>
    <path d="M9 11h10v14H9z" fill="#f4b801"/>
    <path d="M13 9h10v7c0 5 3 7 3 7H16s-3-2-3-7z" opacity=".2"/>
    <path d="M13 8h10v7c0 5 3 7 3 7H16s-3-2-3-7z" fill="#fecd38"/>
</svg>
